X:1
T:Title
%%score { 1 | 2 }
L:1/8
M:6/8
K:Bb
V:1 treble nm="Grand Piano"
V:2 bass 
V:1
 z3 z2[Q:1/4=100] [DF]/[DF]/ | [DB]>[EB][FB] [GB][FA][EG] | [EG][DF][B,D] [DF]2 [DF] | %3
 [DB]>[DB][DB] [DB][Ec][Fd] | [=Ed][Ec][Ec] [Fc]2 [Fc] | [Fd]>[Ge][Fd] [Fd][Ec][DB] | %6
 [GB]>[Gc][GB] [GB]2 A/G/ | F>BB Ac>F |[M:5/8] [CEF][B,DB]- [B,DB]3 |[M:1/8] F |[M:3/4] c>c cc dc | %11
 [Ec][DB] [EG] [DF]2 [DF] | [DB]>[B,EB] [B,FB][DGB] [CAc][DBd] | [=EBd][EBc] [EBc] [FAc]2 F | %14
 [Fd]>[Fd] [Fd]e- e/d/c |[M:13/16] BBBcB3/2G |[M:3/4] F>B BA c>F |[M:5/8] [CEF][B,DB]- [B,DB]3 |] %18
V:2
 z3 z2 [B,,B,]/[B,,B,]/ | [B,,B,]>[C,B,][D,B,] [E,B,][E,B,][E,B,] | %2
 [B,,B,][B,,B,][B,,F,] [B,,B,]2 [B,,B,] | [B,,F,]>[B,,F,][B,,F,] [B,,F,][B,,B,][B,,B,] | %4
 [C,B,][C,B,][C,B,] [F,A,]2 [F,A,] | [B,,B,]>[B,,B,][B,,B,] [B,,B,][B,,F,][B,,F,] | %6
 E,>[E,G,][E,B,] [E,B,]2 [E,B,E]/[E,B,E]/ | [F,B,D]>[F,B,D][F,B,D] [F,CF][F,EF]>[F,A,E] | %8
[M:5/8] B,,B,,- B,,3 |[M:1/8] F, |[M:3/4] [F,A,E]>[F,A,E] [F,A,E][F,A,E] [F,A,F][F,A,E] | %11
 [B,,B,][B,,B,] [B,,B,] [B,,B,]2 [B,,B,] | [B,,B,]>C, D,G, G,G, | C,C, C, F,2 F, | %14
 [B,,B,]>[B,,B,] [B,,B,][F,A,F]- [F,A,F]/[F,A,F]/[F,A,E] | %15
[M:13/16] [G,B,D][G,B,D][G,B,D][E,G,E]/-[E,G,E]-<[E,G,E][E,B,E] | %16
[M:3/4] [F,B,D]>[F,B,D] [F,B,D][F,CF] [F,EF]>[F,A,E] |[M:5/8] B,,B,,- B,,3 |] %18

